localPackages/DesignSystem/Sources/DesignSystem/Resources/Assets.xcassets/IconSet/ic-calendar-week.imageset/ic-calendar-week.svg

<svg width="24" height="24" viewBox="0 0 24 24" fill="none" xmlns="http://www.w3.org/2000/svg">
<g id="ic-calendar-week">
<path id="Icon" fill-rule="evenodd" clip-rule="evenodd" d="M16.5 4.5H7.5V2.25C7.5 1.83579 7.16421 1.5 6.75 1.5C6.33579 1.5 6 1.83579 6 2.25V4.5C3.51472 4.5 1.5 6.51472 1.5 9V18C1.5 20.4853 3.51472 22.5 6 22.5H18C20.4853 22.5 22.5 20.4853 22.5 18V9C22.5 6.51472 20.4853 4.5 18 4.5V2.25C18 1.83579 17.6642 1.5 17.25 1.5C16.8358 1.5 16.5 1.83579 16.5 2.25V4.5ZM6 6H9L9 21H6L6 6ZM10.5 21H13.5V6H10.5L10.5 21ZM4.5 6.40135L4.5 20.5987C3.6033 20.0799 3 19.1104 3 18V9C3 7.88958 3.6033 6.92006 4.5 6.40135ZM15 21V6H18V21H15ZM19.5 20.5987C20.3967 20.0799 21 19.1104 21 18V9C21 7.88958 20.3967 6.92006 19.5 6.40135V20.5987Z" fill="#0F0F0F"/>
</g>
</svg>

<svg xmlns="http://www.w3.org/2000/svg" width="24" height="24" viewBox="0 0 24 24">
  <g class="ic-calendar-week">
    <path fill-rule="evenodd" d="M16.5 4.5h-9V2.25a.75.75 0 0 0-1.5 0V4.5A4.5 4.5 0 0 0 1.5 9v9A4.5 4.5 0 0 0 6 22.5h12a4.5 4.5 0 0 0 4.5-4.5V9A4.5 4.5 0 0 0 18 4.5V2.25a.75.75 0 0 0-1.5 0V4.5ZM6 6h3v15H6V6Zm4.5 15h3V6h-3v15Zm-6-14.599V20.6A2.999 2.999 0 0 1 3 18V9a3 3 0 0 1 1.5-2.599ZM15 21V6h3v15h-3Zm4.5-.401A2.999 2.999 0 0 0 21 18V9a3 3 0 0 0-1.5-2.599V20.6Z" class="Icon"/>
  </g>
</svg>
